X:19063
T:Shepherd and Shepherdess
R:March
C:Trad.
O:England, J. Johnson, 1758
Z:Paul Hardy's Session Tunebook 2015 (see www.paulhardy.net). Creative Commons cc by-nc-sa licenced.
M:2/2
L:1/4
Q:1/2=100
K:G
"G"B/c/d Gg|"C"e2-eg|"G"d>edB|"D"A/A/A AB|"G"GD- DA/B/|"Am"c2d/c/B/A/|"G"Bd "D"AB|"G"G/G/GG2:|
|:"G"BG cA|BG-GA|BG dB|"D"A/A/A AB|"G"GD- DA/B/|"Am"c2d/c/B/A/|"G"Bd "D"AB|"G"G/G/GG2:|
|:"G"g/f/e/f/ ga|"D"gf ed|"Em"B/c/d e/f/g|"G"GF ED|"C"EC cA|"G"BG "D7"cA|"G"Bd "D"AB|"G"G/G/GG2:|

